packages/foundations/assets/icons/functional/images/business & payment/shopping_bag_16_filled.svg

<svg width="16" height="16" viewBox="0 0 16 16" fill="none" xmlns="http://www.w3.org/2000/svg">
<g clip-path="url(#clip0_2202_1469)">
<path fill-rule="evenodd" clip-rule="evenodd" d="M7.99999 1.59998C9.59999 1.59998 11.2 2.79998 11.2 4.79998H12.325C12.75 4.79998 13.1 5.12498 13.125 5.54998L13.6 13.55C13.625 14 13.25 14.4 12.8 14.4H3.19999C2.74999 14.4 2.37499 14 2.39999 13.55L2.87499 5.54998C2.88677 5.34624 2.97636 5.15482 3.12524 5.01525C3.27412 4.87567 3.47092 4.79861 3.67499 4.79998H4.79999C4.79999 2.79998 6.27499 1.59998 7.99999 1.59998ZM6.39999 7.19998H4.79999V7.74998C4.79999 9.87498 6.24999 11.2 7.99999 11.2C9.74999 11.2 11.2 9.87498 11.2 7.74998V7.19998H9.59999V7.47498C9.59999 8.49998 9.27499 9.59998 7.99999 9.59998C6.72499 9.59998 6.39999 8.49998 6.39999 7.47498V7.19998ZM7.99999 3.19998C7.19999 3.19998 6.39999 3.67498 6.39999 4.79998H9.59999C9.59999 3.67498 8.79999 3.19998 7.99999 3.19998Z" fill="#1A1C1F"/>
</g>
<defs>
<clipPath id="clip0_2202_1469">
<rect width="16" height="16" fill="white"/>
</clipPath>
</defs>
</svg>

<svg xmlns="http://www.w3.org/2000/svg" width="16" height="16" fill="none"><g clip-path="url(#a)"><path fill="#1A1C1F" fill-rule="evenodd" d="M8 1.6c1.6 0 3.2 1.2 3.2 3.2h1.125c.425 0 .775.325.8.75l.475 8c.025.45-.35.85-.8.85H3.2c-.45 0-.825-.4-.8-.85l.475-8a.796.796 0 0 1 .8-.75H4.8c0-2 1.475-3.2 3.2-3.2M6.4 7.2H4.8v.55c0 2.125 1.45 3.45 3.2 3.45s3.2-1.325 3.2-3.45V7.2H9.6v.275C9.6 8.5 9.275 9.6 8 9.6S6.4 8.5 6.4 7.475zm1.6-4c-.8 0-1.6.475-1.6 1.6h3.2c0-1.125-.8-1.6-1.6-1.6" clip-rule="evenodd"/></g><defs><clipPath id="a"><path fill="#fff" d="M0 0h16v16H0z"/></clipPath></defs></svg>
